hosted/assets/icon/widgets/dark-mode/generic-html.svg

<svg width="50" height="50" viewBox="0 0 50 50" fill="none" xmlns="http://www.w3.org/2000/svg">
<path d="M18 21L10 25.2952V27.6841L18 32V29.2061L12.4176 26.4621L18 23.8146V21Z" fill="#C89000"/>
<path fill-rule="evenodd" clip-rule="evenodd" d="M18.8724 19.541C19.3856 19.848 19.6998 20.402 19.6998 21V23.8146C19.6998 24.4713 19.3216 25.0693 18.7283 25.3506L16.3269 26.4895L18.7497 27.6804C19.3313 27.9663 19.6998 28.558 19.6998 29.2061V32C19.6998 32.5986 19.385 33.1531 18.871 33.4598C18.3569 33.7666 17.7195 33.7804 17.1927 33.4962L9.19265 29.1803C8.64266 28.8836 8.2998 28.309 8.2998 27.6841V25.2952C8.2998 24.6691 8.64399 24.0936 9.19565 23.7974L17.1956 19.5022C17.7225 19.2193 18.3592 19.2341 18.8724 19.541ZM12.4174 26.4621L17.9998 23.8146V21L9.9998 25.2952V27.6841L17.9998 32V29.2061L12.4174 26.4621Z" fill="white"/>
<path d="M27 20H25.5296L23 33H24.4412L27 20Z" fill="#C89000"/>
<path fill-rule="evenodd" clip-rule="evenodd" d="M28.3129 18.9202C28.6358 19.3129 28.766 19.8295 28.6678 20.3283L26.109 33.3283C25.9521 34.1253 25.2533 34.7 24.441 34.7H22.9998C22.4921 34.7 22.0109 34.473 21.6879 34.0812C21.365 33.6894 21.2341 33.1737 21.3311 32.6753L23.8608 19.6753C24.0162 18.8766 24.7158 18.3 25.5295 18.3H26.9998C27.5082 18.3 27.9899 18.5275 28.3129 18.9202ZM24.441 33H22.9998L25.5295 20H26.9998L24.441 33Z" fill="white"/>
<path d="M32 21V23.7767L37.5836 26.4741L32 29.2026V32L40 27.6693V25.2979L32 21Z" fill="#C89000"/>
<path fill-rule="evenodd" clip-rule="evenodd" d="M31.1274 19.5409C31.6407 19.234 32.2775 19.2194 32.8044 19.5024L40.8044 23.8003C41.3558 24.0966 41.6998 24.6719 41.6998 25.2979V27.6693C41.6998 28.2934 41.3579 28.8673 40.8091 29.1643L32.8091 33.495C32.2823 33.7802 31.6443 33.767 31.1297 33.4604C30.6151 33.1538 30.2998 32.599 30.2998 32V29.2026C30.2998 28.5531 30.6699 27.9603 31.2534 27.6752L33.6934 26.4829L31.2603 25.3075C30.673 25.0237 30.2998 24.429 30.2998 23.7767V21C30.2998 20.4019 30.6141 19.8478 31.1274 19.5409ZM37.5834 26.4741L31.9998 29.2026V32L39.9998 27.6693V25.2979L31.9998 21V23.7767L37.5834 26.4741Z" fill="white"/>
<path fill-rule="evenodd" clip-rule="evenodd" d="M3.7 10.854V41.3H46.3V10.9728H19.9121C19.2079 10.9728 18.5314 10.6976 18.0272 10.2059L16.5068 8.72341L5.89501 8.70145L3.7 10.854ZM4.90949 7.28688C5.09694 7.10305 5.34918 7.00031 5.61173 7.00086L16.7943 7.024C17.0544 7.02454 17.3041 7.12643 17.4903 7.30804L19.214 8.98879C19.4008 9.1709 19.6513 9.27282 19.9121 9.27282H47C47.5523 9.27282 48 9.72054 48 10.2728V42C48 42.5523 47.5523 43 47 43H3C2.44772 43 2 42.5523 2 42V10.5601C2 10.2915 2.10805 10.0342 2.29983 9.8461L4.90949 7.28688Z" fill="white"/>
</svg>

<svg width="50" height="50" fill="none" xmlns="http://www.w3.org/2000/svg"><path d="M18 21l-8 4.295v2.39L18 32v-2.794l-5.582-2.744L18 23.815V21z" fill="#C89000"/><path fill-rule="evenodd" clip-rule="evenodd" d="M18.872 19.541A1.7 1.7 0 0119.7 21v2.815a1.7 1.7 0 01-.972 1.536l-2.401 1.139 2.423 1.19a1.7 1.7 0 01.95 1.526V32a1.7 1.7 0 01-2.507 1.496l-8-4.316a1.7 1.7 0 01-.893-1.496v-2.389a1.7 1.7 0 01.896-1.498l8-4.295a1.7 1.7 0 011.676.039zm-6.455 6.921L18 23.815V21l-8 4.295v2.39L18 32v-2.794l-5.583-2.744z" fill="#fff"/><path d="M27 20h-1.47L23 33h1.441L27 20z" fill="#C89000"/><path fill-rule="evenodd" clip-rule="evenodd" d="M28.313 18.92a1.7 1.7 0 01.355 1.408l-2.559 13a1.7 1.7 0 01-1.668 1.372H23a1.7 1.7 0 01-1.669-2.025l2.53-13a1.7 1.7 0 011.668-1.375H27a1.7 1.7 0 011.314.62zM24.44 33H23l2.53-13H27l-2.56 13z" fill="#fff"/><path d="M32 21v2.777l5.584 2.697L32 29.203V32l8-4.33v-2.372L32 21z" fill="#C89000"/><path fill-rule="evenodd" clip-rule="evenodd" d="M31.127 19.54a1.7 1.7 0 011.677-.038l8 4.298a1.7 1.7 0 01.896 1.498v2.371a1.7 1.7 0 01-.89 1.495l-8 4.331A1.7 1.7 0 0130.3 32v-2.797c0-.65.37-1.243.953-1.528l2.44-1.192-2.433-1.175a1.7 1.7 0 01-.96-1.531V21a1.7 1.7 0 01.827-1.46zm6.456 6.934L32 29.203V32l8-4.33v-2.372L32 21v2.777l5.583 2.697z" fill="#fff"/><path fill-rule="evenodd" clip-rule="evenodd" d="M3.7 10.854V41.3h42.6V10.973H19.912a2.7 2.7 0 01-1.885-.767l-1.52-1.483-10.612-.022L3.7 10.854zm1.21-3.567A1 1 0 015.611 7l11.182.023a1 1 0 01.696.284l1.724 1.68a1 1 0 00.698.285H47a1 1 0 011 1V42a1 1 0 01-1 1H3a1 1 0 01-1-1V10.56a1 1 0 01.3-.714l2.61-2.56z" fill="#fff"/></svg>
